X: 6
I: linebreak $
T: Le Mois de May
T: for couples
C: 
K: A minor
M: 6/4
L: 1/8
c12 | c12 | d12 | B12 | A12 | A12 | 
c12 | e12 | d12 | c12 | d12 | c12 | 
A12 | B12 | G12 | c12 | d12 | e12 | 
d12 | c12 | A12 | c12 | B12 | G12 | 
c12 | A12 | d12 | c12 | B12 | B12 | 
c12 | B12 | B12 | A12- | A12 |] 

